assets/img/icons/duotone-icons/Code/Question-circle.svg

<svg width="24" height="24" viewBox="0 0 24 24" xmlns="http://www.w3.org/2000/svg"><g fill="none" fill-rule="evenodd"><path d="M0 0h24v24H0z"/><circle fill="#335EEA" opacity=".3" cx="12" cy="12" r="10"/><path d="M12 16a1 1 0 110 2 1 1 0 010-2zm-1.409-1.132v-1.659h1.26c1.596 0 2.751-1.218 2.751-2.814s-1.155-2.814-2.751-2.814c-1.617 0-2.73 1.218-2.73 2.814H7.336c0-2.52 1.974-4.473 4.515-4.473 2.541 0 4.536 1.953 4.536 4.473 0 2.52-1.995 4.473-4.536 4.473h-1.26z" fill="#335EEA"/></g></svg>

<?xml version="1.0" encoding="UTF-8"?>
<svg width="24px" height="24px" viewBox="0 0 24 24" version="1.1" xmlns="http://www.w3.org/2000/svg" xmlns:xlink="http://www.w3.org/1999/xlink">
    <!-- Generator: Sketch 52.2 (67145) - http://www.bohemiancoding.com/sketch -->
    <title>Stockholm-icons / Code / Question-circle</title>
    <desc>Created with Sketch.</desc>
    <g id="Stockholm-icons-/-Code-/-Question-circle" stroke="none" stroke-width="1" fill="none" fill-rule="evenodd">
        <rect id="bound" x="0" y="0" width="24" height="24"></rect>
        <circle id="Oval-5" fill="#335EEA" opacity="0.3" cx="12" cy="12" r="10"></circle>
        <path d="M12,16 C12.5522847,16 13,16.4477153 13,17 C13,17.5522847 12.5522847,18 12,18 C11.4477153,18 11,17.5522847 11,17 C11,16.4477153 11.4477153,16 12,16 Z M10.591,14.868 L10.591,13.209 L11.851,13.209 C13.447,13.209 14.602,11.991 14.602,10.395 C14.602,8.799 13.447,7.581 11.851,7.581 C10.234,7.581 9.121,8.799 9.121,10.395 L7.336,10.395 C7.336,7.875 9.31,5.922 11.851,5.922 C14.392,5.922 16.387,7.875 16.387,10.395 C16.387,12.915 14.392,14.868 11.851,14.868 L10.591,14.868 Z" id="Combined-Shape" fill="#335EEA"></path>
    </g>
</svg>
